!!!COM:	Martinu
!!!OTL:	516_Mau-13/9/20-28
**kern	**kern	**dynam
*part1	*part1	*part1
*staff2	*staff1	*
*I"Piano	*	*
*I'Pno.	*	*
*clefG2	*clefG2	*
*k[]	*k[]	*
*C:	*C:	*
*M4/4	*M4/4	*
*8va	*	*
=1	=	=
4r	8ggL 8bb 8ddd	.
.	8ddJ	.
8a#X 8dd#X 8ff#X	8r	.
8r	8aa 8ccc 8eee	.
8r	8ee	.
8cc#X 8ff#X 8aa#X	8r	.
4r	8ggL 8bb 8ddd	.
.	8ddJ	.
=2	=2	=2
8a#X 8dd#X 8ff#X	8r	.
8r	8aa 8ccc 8eee	.
8r	8ee	.
8cc#X 8ff#X 8aa#X	8r	.
2r	8dd 8gg 8bb 8ddd	.
.	8r	.
.	8ee 8gg 8bb 8eee	.
.	8r	.
=3	=3	=3
*X8va	*	*
*	*^	*
8f' 8a-X 8ccn	4.bb-X^	(8ffL	.
8r	.	8gg)	.
8f' 8b-X 8dd	.	8ee'	.
8r	4.bb-^	(8ffJ	.
8f' 8a- 8cc	.	8ggL)	.
8r	.	8ee'	.
8f' 8b- 8dd	[4bb-^	(8ff	<
8r	.	8ggJ)	.
=4	=4	=4	=4
8f' 8a-X 8cc	8bb-X^]	8ee'L	.
8r	[4bb-X^	(8ff	.
8f' 8b-X 8dd	.	8gg)	.
8r	8bb-]	8ee'J	.
8f' 8a- 8cc	8bb-^	8ff'	[
8r	8r	8ryy	.
8B-X 8b-	8bb-^ 8bbb-X	4ryy	sfz
8r	8r	.	.
=5	=5	=5	=5
!!linebreak:original
8f#X' 8an 8cc#X	4.bb^	(8ff#XL	f
8r	.	8gg#X)	.
8f#' 8bn 8dd#X	.	8ee#X'	.
8r	4.bb^	(8ff#J	.
8f#' 8a 8cc#	.	8gg#L)	.
8r	.	8ee#'	.
8f#' 8b 8dd#	[4bb^	(8ff#	<
8r	.	8gg#J)	.
=6	=6	=6	=6
8f#X' 8a 8cc#X	8bb]	8ee#X'L	.
8r	4.bb^	(8ff#X	.
8f#' 8b 8dd#X	.	8gg#X)	.
8r	.	8ee#'J	.
8f#' 8a 8cc#	8ff#X^ 8bb	2ryy	[
8r	8r	.	.
8f#' 8b 8dd#	8bbb'L	.	f
8r	8ggg#X'J	.	.
*	*v	*v	*
=7	=7	=7
*M2/4	*M2/4	*
8f#X 8a 8cc#X	8ddd#XL	<
8r	8bbJ	.
4r	8gg#XL	.
.	8ff#XJ	.
=8	=8	=8
*M4/4	*M4/4	*
*8va	*	*
*	*^	*
8f#X 8a 8dd	4.ddd^	(8aaL	[
8r	.	8bb)	<
8e 8g 8ccn 8dd	.	8gg'	.
8r	4.ddd^	(8aaJ	.
8f# 8a 8dd	.	8bbL)	.
8r	.	8gg'	.
8e 8g 8cc 8dd	[4ddd^	(8aa	.
8r	.	8bbJ)	.
*	*v	*v	*
=9	=9	=9
*X8va	*	*
*	*^	*
8f#X 8a 8dd	8dd]	8g'L	[
8r	4.dd^	(8a	.
8e 8g 8cc 8dd	.	8b)	.
8r	.	8g'J	.
8f# 8a 8dd	8a^ 8dd	2ryy	.
8r	8r	.	.
.	(8qccc#X/	.	sfz
4r	8dd') 8ddd	.	.
.	8r	.	.
*	*v	*v	*
==	==	==
*-	*-	*-
!!!system-decoration: {(s1,s2)}
!!!ONB: Converted from MusicXML on 2020/01/17
